X:1
T:[ID 3-33]
T:[ID 3-33]
T:Bezeichnung standardisiert: Gigue Gieque 21.
T:Urheber unbekannt Datum in der hier transkribierten schriftlichen Quelle: 1767
C:Urheber unbekannt
C:Datum in der hier transkribierten schriftlichen Quelle: 1767
%%score 1 2
L:1/8
M:3/8
K:D
V:1 treble nm="Primo"
V:2 treble nm="Secondo"
V:1
 d | dAf | fda | afa | a2 a | bgb | afa | geg |{g} f2 :: e | ece | e2 e | ecd | e2 a | afa | afa | %16
 bgb | bgb | a>ba | g>ag | f>gf | Te2 d | dAf | fda | a>gf | e2 g | f>ed | c>de | d>AF | D2 :| %30
V:2
 !fermata!F | F2 d | dFf | fdf | f2 f | geg | fdf | ece |{e} d2 :: c | cAB | c2 c | cAB | c2 f | %14
 fdf | fdf | geg | geg | f>gf | e>fe | d>ed | c2 F | F2 d | dFf | f>ed | c2 e | d2 D | A>Bc | %28
 F>FF | F2 :| %30

